X: 1
T: Frank Marchands
R: jig
C: Hayley Keenan
M: 6/8
L: 1/8
K: Dmin
|: D2 A GA(F   | F2) A GFE | D2 A GA(F | F)ED CDE  |
   D2 A GA(F   | F2) A GFE | DdD  cDA  | GFE DCA, :|
|: ~G,3 G,A,B, | D2 GG FE  | D2 d2 cA  |[M:9/8] G2 A GFE DCA, | [M:6/8]
   ~G,3 G,A,B, | D2 GG FE  | DdD  cDA  | GFE DCA, :|
